client/src/assets/archive.svg

<?xml version="1.0" encoding="UTF-8" standalone="no"?>
<svg width="32px" height="32px" viewBox="0 0 32 32" version="1.1" xmlns="http://www.w3.org/2000/svg" xmlns:xlink="http://www.w3.org/1999/xlink" xmlns:sketch="http://www.bohemiancoding.com/sketch/ns">
    <!-- Generator: Sketch 3.0.3 (7891) - http://www.bohemiancoding.com/sketch -->
    <title>icon 143 box</title>
    <desc>Created with Sketch.</desc>
    <defs></defs>
    <g id="Page-1" stroke="none" stroke-width="1" fill="none" fill-rule="evenodd" sketch:type="MSPage">
        <g id="icon-143-box" sketch:type="MSArtboardGroup" fill="#fff">
            <path d="M5,13 L5,28 L28,28 L28,13 L30,13 L30,5 L3,5 L3,13 L5,13 L5,13 Z M6,13 L6,27 L27,27 L27,13 L6,13 L6,13 Z M4,6 L4,12 L29,12 L29,6 L4,6 L4,6 Z M13.9973917,18 C12.8942627,18 12,18.8877296 12,20 C12,21.1045695 12.8958578,22 13.9973917,22 L19.0026083,22 C20.1057373,22 21,21.1122704 21,20 C21,18.8954305 20.1041422,18 19.0026083,18 L13.9973917,18 L13.9973917,18 Z M14.0029293,19 C13.4490268,19 13,19.4438648 13,20 C13,20.5522847 13.4378814,21 14.0029293,21 L18.9970707,21 C19.5509732,21 20,20.5561352 20,20 C20,19.4477153 19.5621186,19 18.9970707,19 L14.0029293,19 L14.0029293,19 Z" id="box" sketch:type="MSShapeGroup"></path>
        </g>
    </g>
</svg>

<?xml version="1.0" encoding="UTF-8"?>
<svg version="1.1" viewBox="0 0 32 32" xmlns="http://www.w3.org/2000/svg">
<title>icon 143 box</title>
<desc>Created with Sketch.</desc>
<g fill="none" fill-rule="evenodd">
<g fill="#fff">
<path d="m5 13v15h23v-15h2v-8h-27v8h2zm1 0v14h21v-14h-21zm-2-7v6h25v-6h-25zm9.9974 12c-1.1031 0-1.9974 0.88773-1.9974 2 0 1.1046 0.89586 2 1.9974 2h5.0052c1.1031 0 1.9974-0.88773 1.9974-2 0-1.1046-0.89586-2-1.9974-2h-5.0052zm0.0055376 1c-0.5539 0-1.0029 0.44386-1.0029 1 0 0.55228 0.43788 1 1.0029 1h4.9941c0.5539 0 1.0029-0.44386 1.0029-1 0-0.55228-0.43788-1-1.0029-1h-4.9941z"/>
</g>
</g>
</svg>
